X:1
T:I Am Saved Through the Blood
T:I Am Saved Through the Blood
T:Mary Hubbert Munford
T:Mary Hubbert Munford, 1907
T:Public Domain Courtesy of the Cyber Hymnal™
T:Public Domain Courtesy of the Cyber Hymnal™
C:Mary Hubbert Munford
Z:Public Domain
Z:Courtesy of the Cyber Hymnal™
%%score ( 1 2 ) ( 3 4 )
L:1/8
Q:1/4=100
M:4/4
K:G
V:1 treble 
V:2 treble 
V:3 bass 
V:4 bass 
V:1
 [GB][Gc] | [Gd]2 [GB]>[DA] [DG]2 [B,D]>[B,G] | [DF]4 [CE]2 [EG][EG] | [DF]2 [DF][DG] [FA]2 G[Ac] | %4
w: 1.~I am|saved through the blood, hal- le-|lu- jah! And my|heart is made whit- er than|
w: 2.~I am|saved through the blood, hal- le-|lu- jah! And it|cleans- eth and keep- eth me|
w: 3.~I am|saved through the blood, hal- le-|lu- jah! And a|heav- en- ly peace so di-|
w: 4.~I am|saved through the blood, hal- le-|lu- jah! And my|life shall show forth the great|
 [GB]6 [GB][Gc] | [Gd]2 [GB]>[DA] [DG]2 [B,D]>[B,G] | [DF]4 [CE]2 [CE][CE] | %7
w: snow; I am|dwell- ing in Christ, hal- le-|lu- jah! And my|
w: pure; It has|healed my poor soul, hal- le-|lu- jah! And my|
w: vine Fills my|soul as I cry, “Hal- le-|lu- jah! What a|
w: love Of the|Christ who re- deems, hal- le-|lu- jah! Till I|
 [B,D]2 [DG][GB] (BA)[DG][DF] | [DG]6 ||"^Refrain" [DG][DG] | [FA]2 [FA]>[GB] [Ac]2 [GB]>[FA] | %11
w: lips with His praise * o- ver-|flow.|||
w: par- don is per- * fect and|sure.|I am|saved through the blood, hal- le-|
w: won- drous sal- va- * tion is|mine.”|||
w: en- ter the man- * sions a-|bove.|||
 [GB]4 [Gd]2 [Gd][Gd] | [E^c]2 [Ec][Fd] [Ge]2 [GB][Gc] | d6 !fermata![GB][Gc] | %14
w: |||
w: lu- jah! I will|sing though the bil- lows may|roll; I am|
w: |||
w: |||
 [Gd]2 [Ge]>[Ge] [Gd]2 [DB]>[DA] | [EG]4 !fermata![Ec]2 [Gc][Gc] | [GB][Gd]G[Gc] [GB]2 [FA]<[FA] | %17
w: |||
w: saved through the blood, hal- le-|lu- jah! In its|cleans- ing I am made ful- ly|
w: |||
w: |||
 [DG]6 |] %18
w: |
w: whole.|
w: |
w: |
V:2
 x2 | x8 | x8 | x8 | x8 | x8 | x8 | x4 F2 x2 | x6 || x2 | x8 | x8 | x8 | (F2 FG A2) x2 | x8 | x8 | %16
 x2 G x5 | x6 |] %18
V:3
 G,[G,A,] | [G,B,]2 [G,D]>[G,C] [G,B,]2 [G,,G,]>[G,,G,] | [C,G,]4 [C,G,]2 [C,C][C,C] | %3
 [D,A,]2 [D,A,][D,B,] [D,B,]2 [D,D][D,D] | [G,D]6 G,[G,A,] | %5
 [G,B,]2 [G,D]>[G,C] [G,B,]2 [G,,G,]>[G,,G,] | [C,G,]4 [C,G,]2 [C,G,][C,G,] | %7
 [D,G,]2 [D,B,][D,D] [D,C]2 [D,B,][D,B,] | [G,,B,]6 || [G,B,][G,B,] | %10
 [D,D]2 [D,D]>[D,D] [D,D]3/2 [D,D]2 [D,D]/ | [G,D]4 [G,B,]2 [G,B,][G,B,] | %12
 A,2 A,[A,D] [A,^C]2 [A,D][A,E] | (D2 A,B, C2) G,[G,A,] | %14
 [G,B,]2 [G,C]>[G,C] [G,B,]2 [B,,G,]>[B,,G,] | [C,G,]4 !fermata![C,G,]2 [C,E][C,E] | %16
 [D,D][D,B,][E,B,][C,E] [D,D]2 [D,C]<[D,C] | [G,,B,]6 |] %18
V:4
 G, x | x8 | x8 | x8 | x6 G, x | x8 | x8 | x8 | x6 || x2 | x8 | x8 | A,2 A, x5 | D,6 G, x | x8 | %15
 x8 | x8 | x6 |] %18

